X:1
T:Title
%%score { 1 | 2 }
L:1/8
Q:1/4=184
M:4/4
K:Bb
V:1 treble nm="Grand Piano"
V:2 bass 
V:1
 z4 B4 | A4 G4 | F4 D4 | G4 G4 | ^F4 B4 | A4 G4 | F4 E2 D2 | G4 G4 | ^F4 =F4 | G4 A4 | B6 c2 | %11
 d4 d2 B2 | B4 A3 B | B8 | z4 B4 | A4 G4 | F4 D4 | G4 G4 | ^F4 B4 | A4 G4 | F4 E2 D2 | G4 G4 | %22
 ^F4 =F4 | G4 A4 | B6 c2 | d4 d2 B2 | B4 A3 B | B8 | z4 B4 | B4 c4 | B4 G2 A2 | B6 c2 | A4 A4 | %33
 B4 c4 | B4 G2 A2 | B4 c4 | A4 d4 | e4 c4 | d4 c2 B2 | B2 c2 B2 A2 | B4 A4 | B4 A4 | G4 F4 | %43
 F2 G2 F2 =E2 | F8 | z4 d4 | c4 B4 | A8 | z4 d4 | e4 d2 c2 | d4 B4 | B2 c2 B2 A2 | B8 | z4 B4 | %54
 B4 B4 | c4 B4 | B2 c2 B2 A2 | B8 |] %58
V:2
 B,,8 | F,4 G,4 | D,4 B,,4 | E,8 | D,4 B,,4 | F,4 G,4 | D,4 B,,4 | E,8 | D,4 D,4 | E,4 C,4 | %10
 D,4 A,,4 | B,,4 E,4 | F,4 F,,4 | B,,8 | B,,8 | F,4 G,4 | D,4 B,,4 | E,8 | D,4 B,,4 | F,4 G,4 | %20
 D,4 B,,4 | E,8 | D,4 D,4 | E,4 C,4 | D,4 A,,4 | B,,4 E,4 | F,4 F,,4 | B,,8 | B,,8 | G,4 F,4 | %30
 G,4 E,4 | D,4 =E,4 | F,4 F,2 E,2 | D,4 A,,4 | B,,4 E,4 | D,4 =E,4 | F,4 B,4 | E,4 F,4 | B,,4 G,4 | %39
 E,4 F,4 | B,,4 F,4 | =E,4 F,4 | C,4 D,4 | B,,4 C,4 | F,,8 | z4 B,,4 | F,4 G,4 | D,8 | z4 B,,4 | %49
 G,,4 A,,4 | B,,4 D,4 | E,4 F,4 | B,,8 | z4 B,4 | G,4 F,4 | E,4 D,4 | E,4 F,4 | B,,8 |] %58

